X: 3
T:The Lark in the Morning
M:6/8
L:1/8
R:Jig
N:http://www.lesession.co.uk
Z:Steve Mansfield 1998-2001
K:D
AFA AFA | BGB BdB | AFA Ade | fed BdB |
AFA AFA | BGB BGB | def afe |1 fed BdB :|2fed B3 |:
def afa | bab afe | def afa | fed BAB |
def afa | bab def | gag fgf | efe edB ::
d2 f fef | fef fef | d2 f fef | edB BAB |
d2 f fef | fef fef | gag fgf | efe edB ::
Add fdd | edd fdd | Add fef | edB BAB |
Add fdd | ede fdf | gag fgf | efe edB :|

